X:1
T:Title
%%score { ( 1 3 ) | ( 2 4 ) }
L:1/8
M:4/4
K:D
V:1 treble nm="Grand Piano"
V:3 treble 
V:2 bass 
V:4 bass 
V:1
 z4 z2[Q:1/4=94] [DF][EG] | [FA][FA][GB][GB] [FA]FDE |[M:3/4] FF FG A2 |[M:1/4] AA | %4
[M:4/4] BBBc ddcB |[M:3/4] [FA][GB] [FA]F E2 |[M:1/4] DE |[M:4/4] FF[CF][CE] EDDF | %8
[M:3/4] [FA][FA] [FA][DF] [FA]2 |[M:1/4] [FA][FA] |[M:4/4] BddB [FA]FDE |[M:3/4] FA [CF][CE] D2 | %12
[M:1/4] FG |[M:4/4] [FA]6 z2 | [FA]2 [DF]4 z2 | G6 z2 | [EG]4 z4 | [FA]6 z2 | [GB]2 d4 z2 | %19
 A2 A2 [^GB]2 c2 |[M:3/4] d6 |] %21
V:2
 z4 z2 [D,A,][D,A,] | [D,D][D,D][D,D][D,D] [D,D][D,A,D][D,F,][D,G,D] | %2
[M:3/4] [D,A,D][D,A,D] [D,A,D][E,A,D] [F,A,D]2 |[M:1/4] [F,A,D][F,A,D] | %4
[M:4/4][K:treble] [G,DG][G,DG][G,DG][A,DG] [B,DG][B,DG][A,DG][G,DG] | %5
[M:3/4][K:bass] [D,D][D,D] [D,D][F,A,D] [A,C]2 |[M:1/4] [D,F,][G,D] | %7
[M:4/4] [D,A,D][D,A,D][A,,A,][A,,A,] [D,G,D][D,F,][D,F,][D,A,D] | %8
[M:3/4] [D,D][D,D] [D,D][D,A,] [D,D]2 |[M:1/4] [D,D][D,D] | %10
[M:4/4][K:treble] [G,DG][G,B,D][G,B,D][G,DG][K:bass] [D,D][D,A,D][F,A,][G,B,D] | %11
[M:3/4] [A,D][A,C] [A,,A,][A,,G,] [D,F,]2 |[M:1/4] DE |[M:4/4] D,D,D,D, D,D,[K:treble]GB | %14
 D,D,D,D, D,D,[K:treble]FF | E6[K:bass] z2 | [A,,A,]A,,B,,C, [D,A,D]2 DE | %17
 D,D,D,D, D,[D,D][K:treble]EF | z2 G4 z2 | [A,DF]2[K:bass] [F,D]2 [E,E]2 [A,G]2 | %20
[M:3/4] A,2 z2 z2 |] %21
V:3
 x8 | x8 |[M:3/4] x6 |[M:1/4] x2 |[M:4/4] x8 |[M:3/4] x6 |[M:1/4] x2 |[M:4/4] x8 |[M:3/4] x6 | %9
[M:1/4] x2 |[M:4/4] x8 |[M:3/4] x6 |[M:1/4] x2 |[M:4/4] DDDD D[DFA]Bd | DDA,A, A,A,AA | %15
 z2 CC C[GB][FA][EG] | z A,A,A, F2 FG | DDDD DFGA | DD z B, B,B,cB | x8 |[M:3/4] F2 GG F2 |] %21
V:4
 x8 | x8 |[M:3/4] x6 |[M:1/4] x2 |[M:4/4][K:treble] x8 |[M:3/4][K:bass] x6 |[M:1/4] x2 | %7
[M:4/4] x8 |[M:3/4] x6 |[M:1/4] x2 |[M:4/4][K:treble] x4[K:bass] x4 |[M:3/4] x6 |[M:1/4] x2 | %13
[M:4/4] x6[K:treble] x2 | x6[K:treble] x2 | z2 A,A,[K:bass] A,[A,,A,][A,,A,][A,,A,] | x8 | %17
 x6[K:treble] x2 | G,G,[G,B,]G, G,G,[^G,D=F][G,DF] | x2[K:bass] x6 | %20
[M:3/4] D,2- [D,-B,][D,-B,] [D,A,]2 |] %21

